X:3167
T:Polska från Dorotea
R:Polska
O:Dorotea, Lappland
M:3/4
L:1/16
N: Efter Johan August Andersson, upptecknad av [[Personer/Sören Johansson]]
Z: Eva Zwahlen 2013-02-18
K:G
|: {D}G3F A2G2 B2A2 |c3B g2d2 B2G2 |  B2AB c3A B2G2 |  FA3 D8 | {D}G3F A2G2 B2A2 |c3B g2d2 B2G2 |  B2AB c3A B2G2 | FD3 G8  :||: B2AB c3A _B2G2 | A3G F2DF G4 | (3_B2A2B2 (3c2B2c2 (3d2B2G2 | (3G2A2G2 (3F2A2F2 D4 | (3B2A2B2 (3c2B2A2 d4 | (3B2A2G2 (3A2G2F2 D4 | (3C2E2G2 (3B,2D2G2 (3A,2D2F2 | G4 G,8 :|
(:musicend:)
(:music:)
